X: 33889
T: Red Island Tune
R: polka
M: 2/4
K: Amajor
|:~A2 AB|cB c2|BA AB|ce B2|
~A2 AB|cB c2|BB cB|1 A2 A2:|2 A2 ce||
|:~f2 fe|cB c2|BA AB|ce ce|
~f2 fe|cB c2|BB cB|1 A2 ce:|2 A2 A2||

